rospo-icon-theme-classic-common/16x16/apps/mailspring.svg

<svg height="16" viewBox="0 0 16 16" width="16" xmlns="http://www.w3.org/2000/svg"><path d="m8 0a8 8 0 0 0 -8 8 8 8 0 0 0 8 8 8 8 0 0 0 8-8 8 8 0 0 0 -8-8z" fill="#23b7fb"/><path d="m3 4 5 5 5-5zm0 1.4140625v6.5859375l3.2929688-3.2929688zm10 0-3.2929688 3.2929687 3.2929688 3.2929688zm-6 4-2.5859375 2.5859375h7.1718755l-2.585938-2.5859375-.2929688.2929687a1.0001 1.0001 0 0 1 -1.4140624 0z" fill="#a7ffe8"/></svg>

<svg xmlns="http://www.w3.org/2000/svg" width="16" height="16" version="1.1" viewBox="0 0 16 16">
 <path style="fill:#23b7fb" d="M 8,0 A 8,8 0 0 0 0,8 8,8 0 0 0 8,16 8,8 0 0 0 16,8 8,8 0 0 0 8,0 Z"/>
 <path style="fill:#a7ffe8" d="M 3 4 L 8 9 L 13 4 L 3 4 z M 3 5.4140625 L 3 12 L 6.2929688 8.7070312 L 3 5.4140625 z M 13 5.4140625 L 9.7070312 8.7070312 L 13 12 L 13 5.4140625 z M 7 9.4140625 L 4.4140625 12 L 11.585938 12 L 9 9.4140625 L 8.7070312 9.7070312 A 1.0001 1.0001 0 0 1 7.2929688 9.7070312 L 7 9.4140625 z"/>
</svg>
